X: 459
%
U:~=!turn!
T: Mrs. Brown of Linkwood
C:Marshall
O:Scotland
B:Keith Norman MacDonald : "The Skye collection of the best reels & strathspeys extant" : 1887
Z:Ralph Palmer
R:Reel
M:C|
L:1/8
K:E Aeolian
F | (E>F)G>A TB2 (B>^c) | {/^c}d>BAd {/G}FDAF | (E>F)GA TB2 (Bf) | gef^d e/e/e e:|
f | {/f}gef^d {/f}e2 (Be) | {/^c}dBAd FDDf | {/f}gef^d {/f}e2 (Be) | {/^c}d>B AF E/E/E (Ef) |
{/f}gef^d {/f}e2 (Be) | {^c}dBAd {/G}FDDF | (E>F)GA TB2 (Bf) | {/f}gef^d e/e/e e |]


